loleaflet/images/lc_menubar.svg

<svg height="16" viewBox="0 0 16 16" width="16" xmlns="http://www.w3.org/2000/svg"><g fill="#505050"><path d="m2.4616772 2a.46167718.75 0 0 0 -.4616772.75.46167718.75 0 0 0 .4616772.75h11.0766458a.46167718.75 0 0 0 .461677-.75.46167718.75 0 0 0 -.461677-.75z"/><path d="m2.4616772 12a.46167718.75 0 0 0 -.4616772.75.46167718.75 0 0 0 .4616772.75h11.0766458a.46167718.75 0 0 0 .461677-.75.46167718.75 0 0 0 -.461677-.75z"/><path d="m2.4616772 7a.46167718.75 0 0 0 -.4616772.75.46167718.75 0 0 0 .4616772.75h11.0766458a.46167718.75 0 0 0 .461677-.75.46167718.75 0 0 0 -.461677-.75z"/></g></svg>

<?xml version="1.0" encoding="UTF-8" standalone="no"?>
<svg
   xmlns:dc="http://purl.org/dc/elements/1.1/"
   xmlns:cc="http://creativecommons.org/ns#"
   xmlns:rdf="http://www.w3.org/1999/02/22-rdf-syntax-ns#"
   xmlns:svg="http://www.w3.org/2000/svg"
   xmlns="http://www.w3.org/2000/svg"
   xmlns:sodipodi="http://sodipodi.sourceforge.net/DTD/sodipodi-0.dtd"
   xmlns:inkscape="http://www.inkscape.org/namespaces/inkscape"
   height="16"
   width="16"
   inkscape:version="1.0 (4035a4f, 2020-05-01)"
   sodipodi:docname="lc_menubar.svg"
   id="svg6"
   version="1.1"
   viewBox="0 0 16 16">
  <metadata
     id="metadata12">
    <rdf:RDF>
      <cc:Work
         rdf:about="">
        <dc:format>image/svg+xml</dc:format>
        <dc:type
           rdf:resource="http://purl.org/dc/dcmitype/StillImage" />
        <dc:title />
      </cc:Work>
    </rdf:RDF>
  </metadata>
  <defs
     id="defs10" />
  <sodipodi:namedview
     inkscape:document-rotation="0"
     inkscape:current-layer="svg6"
     inkscape:window-maximized="1"
     inkscape:window-y="30"
     inkscape:window-x="0"
     inkscape:cy="12.215926"
     inkscape:cx="16.530024"
     inkscape:zoom="15.6496"
     inkscape:snap-page="true"
     inkscape:snap-bbox-edge-midpoints="true"
     inkscape:bbox-paths="true"
     inkscape:snap-bbox="true"
     inkscape:snap-intersection-paths="true"
     inkscape:object-paths="true"
     inkscape:guide-bbox="true"
     showguides="false"
     showgrid="false"
     id="namedview8"
     inkscape:window-height="1020"
     inkscape:window-width="1920"
     inkscape:pageshadow="2"
     inkscape:pageopacity="0"
     guidetolerance="10"
     gridtolerance="10"
     objecttolerance="10"
     borderopacity="1"
     bordercolor="#666666"
     pagecolor="#ffffff">
    <sodipodi:guide
       inkscape:locked="false"
       id="guide822"
       orientation="1,0"
       position="21.999789,9.0502776" />
    <sodipodi:guide
       inkscape:locked="false"
       id="guide829"
       orientation="1,0"
       position="2.000211,18.705949" />
    <sodipodi:guide
       inkscape:locked="false"
       id="guide831"
       orientation="1,0"
       position="16,15" />
    <sodipodi:guide
       inkscape:locked="false"
       id="guide837"
       orientation="0,1"
       position="4,15" />
    <sodipodi:guide
       inkscape:locked="false"
       id="guide839"
       orientation="0,1"
       position="16,13" />
  </sodipodi:namedview>
  <path
     id="path907"
     d="M 2.4616772,2 A 0.46167718,0.75 0 0 0 2,2.75 0.46167718,0.75 0 0 0 2.4616772,3.5 H 13.538323 A 0.46167718,0.75 0 0 0 14,2.75 0.46167718,0.75 0 0 0 13.538323,2 Z"
     style="color:#000000;font-style:normal;font-variant:normal;font-weight:normal;font-stretch:normal;font-size:medium;line-height:normal;font-family:sans-serif;font-variant-ligatures:normal;font-variant-position:normal;font-variant-caps:normal;font-variant-numeric:normal;font-variant-alternates:normal;font-variant-east-asian:normal;font-feature-settings:normal;font-variation-settings:normal;text-indent:0;text-align:start;text-decoration:none;text-decoration-line:none;text-decoration-style:solid;text-decoration-color:#000000;letter-spacing:normal;word-spacing:normal;text-transform:none;writing-mode:lr-tb;direction:ltr;text-orientation:mixed;dominant-baseline:auto;baseline-shift:baseline;text-anchor:start;white-space:normal;shape-padding:0;shape-margin:0;inline-size:0;clip-rule:nonzero;display:inline;overflow:visible;visibility:visible;opacity:1;isolation:auto;mix-blend-mode:normal;color-interpolation:sRGB;color-interpolation-filters:linearRGB;solid-color:#000000;solid-opacity:1;vector-effect:none;fill:#505050;fill-opacity:1;fill-rule:nonzero;stroke:none;stroke-width:1;stroke-linecap:round;stroke-linejoin:miter;stroke-miterlimit:4;stroke-dasharray:none;stroke-dashoffset:0;stroke-opacity:1;color-rendering:auto;image-rendering:auto;shape-rendering:auto;text-rendering:auto;enable-background:accumulate;stop-color:#000000;stop-opacity:1" />
  <path
     style="color:#000000;font-style:normal;font-variant:normal;font-weight:normal;font-stretch:normal;font-size:medium;line-height:normal;font-family:sans-serif;font-variant-ligatures:normal;font-variant-position:normal;font-variant-caps:normal;font-variant-numeric:normal;font-variant-alternates:normal;font-variant-east-asian:normal;font-feature-settings:normal;font-variation-settings:normal;text-indent:0;text-align:start;text-decoration:none;text-decoration-line:none;text-decoration-style:solid;text-decoration-color:#000000;letter-spacing:normal;word-spacing:normal;text-transform:none;writing-mode:lr-tb;direction:ltr;text-orientation:mixed;dominant-baseline:auto;baseline-shift:baseline;text-anchor:start;white-space:normal;shape-padding:0;shape-margin:0;inline-size:0;clip-rule:nonzero;display:inline;overflow:visible;visibility:visible;opacity:1;isolation:auto;mix-blend-mode:normal;color-interpolation:sRGB;color-interpolation-filters:linearRGB;solid-color:#000000;solid-opacity:1;vector-effect:none;fill:#505050;fill-opacity:1;fill-rule:nonzero;stroke:none;stroke-width:1;stroke-linecap:round;stroke-linejoin:miter;stroke-miterlimit:4;stroke-dasharray:none;stroke-dashoffset:0;stroke-opacity:1;color-rendering:auto;image-rendering:auto;shape-rendering:auto;text-rendering:auto;enable-background:accumulate;stop-color:#000000;stop-opacity:1"
     d="M 2.4616772,12 A 0.46167718,0.75 0 0 0 2,12.75 0.46167718,0.75 0 0 0 2.4616772,13.5 H 13.538323 A 0.46167718,0.75 0 0 0 14,12.75 0.46167718,0.75 0 0 0 13.538323,12 Z"
     id="path909" />
  <path
     id="path911"
     d="M 2.4616772,7 A 0.46167718,0.75 0 0 0 2,7.75 0.46167718,0.75 0 0 0 2.4616772,8.5 H 13.538323 A 0.46167718,0.75 0 0 0 14,7.75 0.46167718,0.75 0 0 0 13.538323,7 Z"
     style="color:#000000;font-style:normal;font-variant:normal;font-weight:normal;font-stretch:normal;font-size:medium;line-height:normal;font-family:sans-serif;font-variant-ligatures:normal;font-variant-position:normal;font-variant-caps:normal;font-variant-numeric:normal;font-variant-alternates:normal;font-variant-east-asian:normal;font-feature-settings:normal;font-variation-settings:normal;text-indent:0;text-align:start;text-decoration:none;text-decoration-line:none;text-decoration-style:solid;text-decoration-color:#000000;letter-spacing:normal;word-spacing:normal;text-transform:none;writing-mode:lr-tb;direction:ltr;text-orientation:mixed;dominant-baseline:auto;baseline-shift:baseline;text-anchor:start;white-space:normal;shape-padding:0;shape-margin:0;inline-size:0;clip-rule:nonzero;display:inline;overflow:visible;visibility:visible;opacity:1;isolation:auto;mix-blend-mode:normal;color-interpolation:sRGB;color-interpolation-filters:linearRGB;solid-color:#000000;solid-opacity:1;vector-effect:none;fill:#505050;fill-opacity:1;fill-rule:nonzero;stroke:none;stroke-width:1;stroke-linecap:round;stroke-linejoin:miter;stroke-miterlimit:4;stroke-dasharray:none;stroke-dashoffset:0;stroke-opacity:1;color-rendering:auto;image-rendering:auto;shape-rendering:auto;text-rendering:auto;enable-background:accumulate;stop-color:#000000;stop-opacity:1" />
</svg>
